raw-svg/sliders-v.svg

<svg viewBox="0 0 24 24" xmlns="http://www.w3.org/2000/svg"><path d="m16.5 19.75a.76.76 0 0 1 -.75-.75v-7a.75.75 0 0 1 1.5 0v7a.76.76 0 0 1 -.75.75z"/><path d="m16.5 10.75a.76.76 0 0 1 -.75-.75v-5a.75.75 0 0 1 1.5 0v5a.76.76 0 0 1 -.75.75z"/><path d="m18 10.75h-3a.75.75 0 0 1 0-1.5h3a.75.75 0 0 1 0 1.5z"/><path d="m7.5 19.75a.76.76 0 0 1 -.75-.75v-7a.75.75 0 0 1 1.5 0v7a.76.76 0 0 1 -.75.75z"/><path d="m7.5 10.75a.76.76 0 0 1 -.75-.75v-5a.75.75 0 0 1 1.5 0v5a.76.76 0 0 1 -.75.75z"/><path d="m9 10.75h-3a.75.75 0 0 1 0-1.5h3a.75.75 0 0 1 0 1.5z"/><path d="m12 19.75a.76.76 0 0 1 -.75-.75v-3a.75.75 0 0 1 1.5 0v3a.76.76 0 0 1 -.75.75z"/><path d="m12 14.75a.76.76 0 0 1 -.75-.75v-9a.75.75 0 0 1 1.5 0v9a.76.76 0 0 1 -.75.75z"/><path d="m13.5 14.75h-3a.75.75 0 0 1 0-1.5h3a.75.75 0 0 1 0 1.5z"/></svg>

<svg xmlns="http://www.w3.org/2000/svg" viewBox="0 0 24 24"><g id="sliders-v"><path d="M16.5,19.75a.76.76,0,0,1-.75-.75V12a.75.75,0,0,1,1.5,0v7A.76.76,0,0,1,16.5,19.75Z"/><path d="M16.5,10.75a.76.76,0,0,1-.75-.75V5a.75.75,0,0,1,1.5,0v5A.76.76,0,0,1,16.5,10.75Z"/><path d="M18,10.75H15a.75.75,0,0,1,0-1.5h3a.75.75,0,0,1,0,1.5Z"/><path d="M7.5,19.75A.76.76,0,0,1,6.75,19V12a.75.75,0,0,1,1.5,0v7A.76.76,0,0,1,7.5,19.75Z"/><path d="M7.5,10.75A.76.76,0,0,1,6.75,10V5a.75.75,0,0,1,1.5,0v5A.76.76,0,0,1,7.5,10.75Z"/><path d="M9,10.75H6a.75.75,0,0,1,0-1.5H9a.75.75,0,0,1,0,1.5Z"/><path d="M12,19.75a.76.76,0,0,1-.75-.75V16a.75.75,0,0,1,1.5,0v3A.76.76,0,0,1,12,19.75Z"/><path d="M12,14.75a.76.76,0,0,1-.75-.75V5a.75.75,0,0,1,1.5,0v9A.76.76,0,0,1,12,14.75Z"/><path d="M13.5,14.75h-3a.75.75,0,0,1,0-1.5h3a.75.75,0,0,1,0,1.5Z"/></g></svg>
